X:020
T:Untitled Hornpipe. EHo.020
A:England; East Yorkshire
M:C|
L:1/8
Q:1/2=96
B:Edward Holmes MS, c1846, Beverley, Yorkshire.
O:
Z:Village Music Project 2018, Jake Wade. Beverley, East Yorks.
K:Bb
(de) | f2f2fdcB | g2g2gedc | f2f2fdcB | cdec BAGF |
f2f2fdcB | g2g2gedc | dfdB cecA | B2B2B2 :|
|: AB | cAFA cAFA | dBec fdcB | ecAc ecAc | BdfBc2AB |
cAFA cAFA | dBec fdcB | GBeg Acfa | b2b2b2 :|

